X: 39162
T: Sweets Of May, The
R: jig
M: 6/8
K: Dmajor
|:A|d>fa f2 d|e2 f g>fe|d>fa f2 d|e>cA d2 A|
d>fa f2 d|e2 f g>fe|d>fa f>af|e>cA d2-:|
d|e>fe e2 d|B2 c e2 c|d2 e f/g/f e|f2 g a2 f|
e>fe e2 d|B2 c e2 c|d>fa f2 d|e>cA d2-||
d|d2 A d2 e|f>ef g>fe|d2 A d2 f|e>cA d3|
d2 A d2 e|f>ef g>fe|d2 A d2 f|e>cA d2||
|:f|a>ba a^ga|A3 A3|g>ag gfg|A3 A>Bc|
d2 A d2 e|f>ef g>fe|d2 A d2 f|e>cA d2:|

